app/images/dist/cart.svg

<svg width="32" height="29" viewBox="0 0 32 29" fill="none" xmlns="http://www.w3.org/2000/svg">
<path d="M7.4171 27.1546C7.31922 26.9185 7.26373 26.6672 7.25293 26.4122V26.32C7.25293 25.8888 7.38078 25.4674 7.62032 25.1089C7.85986 24.7504 8.20034 24.4709 8.59869 24.3059C8.99703 24.1409 9.43539 24.0978 9.85826 24.1819C10.2811 24.266 10.6696 24.4736 10.9744 24.7785C11.2794 25.0834 11.487 25.4719 11.5711 25.8947C11.6552 26.3175 11.612 26.7559 11.447 27.1543C11.282 27.5526 11.0026 27.8931 10.6441 28.1326C10.2856 28.3722 9.86414 28.5 9.43298 28.5H9.43261C9.14619 28.5002 8.86249 28.444 8.59782 28.3345C8.33315 28.2251 8.09265 28.0645 7.89004 27.8621C7.68747 27.6596 7.52678 27.4193 7.4171 27.1546ZM10.553 20.186L10.5515 20.186C10.4015 20.1864 10.2555 20.1376 10.1359 20.0471C10.0165 19.9567 9.93003 19.8296 9.88973 19.6852C9.88969 19.6851 9.88966 19.685 9.88962 19.6848L5.05682 2.23058L4.95532 1.86401H4.57495H1.18201C1.00112 1.86401 0.827641 1.79215 0.699745 1.66425C0.571851 1.53636 0.5 1.36289 0.5 1.18201C0.5 1.00112 0.571851 0.827652 0.699745 0.699758C0.827639 0.571864 1.00112 0.500006 1.18201 0.500006L5.46301 0.500008L5.46458 0.500003C5.61439 0.499534 5.76018 0.548331 5.87954 0.638891C5.99883 0.729404 6.08507 0.856665 6.12498 1.00114L6.12506 1.00143L10.9581 18.4564L11.0596 18.823H11.4399H24.6179H24.9453L25.0762 18.5229L29.4593 8.47492L29.7646 7.77501H29.001H14.401H14.3937L14.3865 7.77522C14.2952 7.77787 14.2043 7.76218 14.1191 7.72906C14.0339 7.69594 13.9563 7.64607 13.8907 7.58243C13.8252 7.51876 13.7731 7.44259 13.7375 7.35846C13.7019 7.27428 13.6836 7.18384 13.6836 7.0925C13.6836 7.00117 13.7019 6.91073 13.7375 6.82655C13.7731 6.74241 13.8252 6.66625 13.8907 6.60258C13.9562 6.53894 14.0339 6.48907 14.1191 6.45595C14.2043 6.42283 14.2952 6.40714 14.3865 6.40979L14.3937 6.41001H14.401H30.814H30.8141C30.9267 6.40998 31.0375 6.43801 31.1366 6.49157C31.2357 6.54512 31.3199 6.62252 31.3815 6.71678L31.382 6.71745C31.4446 6.81285 31.4827 6.92223 31.4928 7.03584C31.5029 7.14909 31.485 7.26293 31.4407 7.36736C31.4405 7.36784 31.4403 7.36832 31.4401 7.36881L26.0371 19.7762C26.037 19.7764 26.0369 19.7766 26.0368 19.7768C25.9834 19.8983 25.8958 20.0016 25.7848 20.0743C25.6735 20.147 25.5435 20.1859 25.4105 20.186L10.553 20.186ZM26.2116 28.5C25.6981 28.4768 25.2137 28.2545 24.8613 27.88C24.5067 27.5032 24.3139 27.0024 24.3244 26.4851C24.3348 25.9678 24.5477 25.4752 24.9172 25.113C25.2868 24.7509 25.7836 24.548 26.301 24.548C26.8184 24.548 27.3151 24.7509 27.6847 25.113C28.0543 25.4752 28.2671 25.9678 28.2776 26.4851C28.288 27.0024 28.0953 27.5032 27.7406 27.88C27.3882 28.2545 26.9038 28.4768 26.3903 28.5H26.2116Z" fill="#272727" stroke="black"/>
</svg>

<svg width="32" height="29" fill="none" xmlns="http://www.w3.org/2000/svg"><path d="M7.417 27.155a2.18 2.18 0 01-.164-.743v-.092a2.18 2.18 0 112.18 2.18h0a2.18 2.18 0 01-2.016-1.345zm3.136-6.969h-.002a.686.686 0 01-.661-.501L5.057 2.23l-.102-.367H1.182a.682.682 0 110-1.364h4.283a.683.683 0 01.66.501h0l4.833 17.455.102.367h13.885l.131-.3L29.46 8.475l.306-.7h-15.38a.683.683 0 110-1.365h16.428a.678.678 0 01.567.307h.001a.692.692 0 01.059.65v.002l-5.404 12.407s0 0 0 0a.685.685 0 01-.627.41H10.553zM26.212 28.5a1.977 1.977 0 11.178 0h-.178z" fill="#272727" stroke="#000"/></svg>
